X:20007
T:Tenpenny Bit, The
T:Three Little Drummers, The
R:Jig
C:Trad.
O:Ireland
M:6/8
L:1/8
Q:1/8=200
K:Ador
"Am"eAA eAA|"Em"BAB GBd|"Am"eAA eAA|"Em"def "G"gfg|
"Am"eAA eAA|"Em"BAB GAB|def ged|"G"BAG "Am"A3:|
|:"Am"eaa aga|"Em"bag ged|"Am"eaa aga|"Em"bag a3|
"Am"eaa aga|"Em"bag ged|def ged|"G"BAG "Am"A3:|

